resources/svg/upload.svg

<svg xmlns="http://www.w3.org/2000/svg" viewBox="0 0 15 15" fill="currentColor"><path fill-rule="evenodd" clip-rule="evenodd" d="M7.48614 0.806747L11.0891 4.13259L10.4109 4.8674L8 2.64199V11H7V2.7071L4.85355 4.85355L4.14645 4.14644L7.48614 0.806747ZM2 13V6.99999H1V14H14V6.99999H13V13H2Z" fill="black"/></svg>

<svg xmlns="http://www.w3.org/2000/svg" viewBox="0 0 15 15" fill="currentColor"><path fill-rule="evenodd" clip-rule="evenodd" d="M7.486.807l3.603 3.326-.678.734L8 2.642V11H7V2.707L4.854 4.854l-.708-.708 3.34-3.34zM2 13V7H1v7h13V7h-1v6H2z" fill="currentColor"/></svg>
